X:1
T:The Good Old-Fashioned Way
T:The Good Old-Fashioned Way
T:Edwin Othello Excell
T:Johnson Oatman, Jr., 1903
T:Public Domain Courtesy of the Cyber Hymnal™
T:Public Domain Courtesy of the Cyber Hymnal™
C:Edwin Othello Excell
Z:Public Domain
Z:Courtesy of the Cyber Hymnal™
%%score ( 1 2 ) ( 3 4 )
L:1/8
Q:1/4=110
M:4/4
K:Ab
V:1 treble 
V:2 treble 
V:3 bass 
V:4 bass 
V:1
|: [CE][CF] | [CA]3 [CA] [DB]2 [Ec]2 | [CE]2 [CE]4 [CE][CF] | [EA]3 [EA] [DB]3 [DE] | %4
w: 1.~I am|on the Gos- pel|high- way, Press- ing|for- ward to the|
w: 2.~From the|snares of sin- ful|plea- sure, Here my|feet are al- ways|
w: 3.~Ma- ny|friends have gone be-|fore me, They have|laid their ar- mor|
w: 4.~Just a|few more steps to|fol- low, Just a|few more days to|
 [CA]6 [CE][CF] | [CA]3 [CA] [DB]2 [Ec]2 | [CE]2 [CE]4 [CE][EF] | [EG]3 [=DA] [DG]2 [DF]2 | %8
w: goal, Where for|me a rest re-|main- eth In the|home- land of the|
w: free; Tho’ the|way may be called|nar- row, It is|wide e- nough for|
w: down, With the|pil- grims and the|mar- tyrs Have ob-|tained the robe and|
w: roam; But the|way grows more de-|light- ful As I’m|draw- ing near- er|
 E6 [EB][E=A] | [EB]3 [EB] [Ec]2 [DB]2 | [CE]2 [CE]4 [EA][EB] | [Ec]3 [CA] [CA]3 [=DA] | %12
w: soul; Ev- ery|hour I’m mov- ing|on- ward, Not a|mo- ment to de-|
w: me; It was|wide e- nough for|Dan- iel, And for|Da- vid in his|
w: crown; On this|road they fought their|bat- tles, Shout- ing|vic- tory day by|
w: home; When the|storms of life are|o- ver, And the|clouds have rolled a-|
 [DB]6 [CA][DB] | [Ec]2 [Ae]2 [Ae]3 [Ac] | [EB]2 [EA]4 A[AB] | [Ac] [Ac]3 [Ac] [EB]3 | [EA]6 || %17
w: lay; I am|go- ing home to|glo- ry In the|good old- fa- shioned|way.|
w: day; I am|glad that I can|fol- low In the|good old- fa- shioned|way.|
w: day; I shall|o- ver- come and|join them In the|good old- fa- shioned|way.|
w: way, I shall|find the gates of|Hea- ven, In the|good old- fa- shioned|way.|
"^Refrain" !fermata![Ac][EB] | [EA] [CE]3 [CF] [CA]3 | [CE]6 [A,C][B,D] | [CE] [CA]3 [CF] [CA]3 | %21
w: ||||
w: In the|good old- fa- shioned|way, In the|good old- fa- shioned|
w: ||||
w: ||||
 [DB]6 [CA][DB] | [Ec]2 [Ae]2 [Ae]3 [Ac] | [EB]2 [EA]4 A[AB] | [Ac] [Ac]3 [Ac] [EB]3 | %25
w: ||||
w: way, I am|go- ing home to|glo- ry In the|good old- fa- shioned|
w: ||||
w: ||||
 [EA]6"^Play 4 times" :|O ([Ac][EB]) | [EA]3 [EA] [EA]>[EA] ([EA][Ac]) | [GB]3 [GB] (ce) [Af]2 | %29
w: ||||
w: way.|Then *|palms of vic- to- ry, *|Crowns of glo- * ry,|
w: ||||
w: ||||
 [Ae]3 [Af] [Ae]>[Ac] [Ac]2 | ([GB][EA]) ([Ac][EB]) [EA]2 |] %31
w: ||
w: Palms of vic- to- ry|I * shall * wear.|
w: ||
w: ||
V:2
|: x2 | x8 | x8 | x8 | x8 | x8 | x8 | x8 | E6 x2 | x8 | x8 | x8 | x8 | x8 | x6 A x | x8 | x6 || %17
 x2 | x8 | x8 | x8 | x8 | x8 | x6 A x | x8 | x6 :| x2 | x8 | x4 A2 x2 | x8 | x6 |] %31
V:3
|: [A,,A,][A,,A,] | [A,,E,]3 [A,,E,] [A,,A,]2 [A,,A,]2 | [A,,A,]2 [A,,A,]4 [A,,A,][A,,A,] | %3
 [C,A,]3 [C,A,] [E,G,]3 [E,G,] | [A,,A,]6 [A,,A,][A,,A,] | [A,,E,]3 [A,,E,] [A,,A,]2 [A,,A,]2 | %6
 [A,,A,]2 [A,,A,]4 [A,,A,][A,,C] | [B,,B,]3 [B,,C] [B,,B,]2 [B,,A,]2 | [E,G,]6 [E,D][E,C] | %9
 [E,D]3 [E,D] [E,A,]2 [E,G,]2 | [A,,A,]2 [A,,A,]4 [C,A,][E,G,] | A,3 A, [F,A,]3 [B,,A,] | %12
 [E,G,]6 [A,,A,][A,,A,] | A,2 [A,C]2 [A,C]3 [A,E] | [A,D]2 [A,C]4 [C,E][D,F] | %15
 [E,E] [E,E]3 [E,E] [E,D]3 | [A,,A,C]6 || !fermata![A,E][A,D] | [A,,C] [A,,A,]3 [A,,A,] [A,,A,]3 | %19
 [A,,A,]6 [A,,E,][A,,E,] | [A,,A,] [A,,E,]3 [A,,A,] [A,,A,]3 | [E,G,]6 [A,,A,][A,,A,] | %22
 A,2 [A,C]2 [A,C]3 [A,E] | [A,D]2 [A,C]4 [C,E][D,F] | [E,E] [E,E]3 [E,E] [E,D]3 | %25
 [A,,A,C]6"^Play 4 times" :| (ED) | [A,C]3 [A,C] [A,C]>[A,C] (CE) | [E,E]3 [E,E] (EC) [A,C]2 | %29
 [A,C]3 [A,D] [A,C]>[A,E] [A,E]2 | (DC) (ED) [A,,A,C]2 |] %31
V:4
|: x2 | x8 | x8 | x8 | x8 | x8 | x8 | x8 | x8 | x8 | x8 | A,3 A, x4 | x8 | A,2 x6 | x8 | x8 | x6 || %17
 x2 | x8 | x8 | x8 | x8 | A,2 x6 | x8 | x8 | x6 :| A,2 | x6 A,2 | x4 A,2 x2 | x8 | E,2 E,2 x2 |] %31

